X: 1
T: Holly Bush, The
C: Finbarr Dwyer
S: Dale Russ and Todd Denman
Z: Jack Gilder
M: 4/4
L: 1/8
R: reel
K: Dmix
A2FA DAFA|ABde fded|cG~G2 EG~G2|cedc AGFG|
A2FA DAFA|ABde fded|cGG2 cedc|AFGE DEFG:|
|:Add^c defg|adde dcAF|GccB cde/f/g|afge dcAG|
Add^c defg |adde dcAB|cedB cAGc|AFGE DEFG:|
